react/assets/icons/news.svg

<svg xmlns="http://www.w3.org/2000/svg" width="48" height="48" viewBox="0 0 24 24" aria-labelledby="newsIconTitle" stroke-linecap="square" fill="none"><path d="M22 5v12c0 1.333-.667 2-2 2s-2-.667-2-2V5H2v11c0 2 1 3 3 3h15M6 14h1m4 0h3m-8-4h8"/></svg>

<svg role="img" xmlns="http://www.w3.org/2000/svg" width="48px" height="48px" viewBox="0 0 24 24" aria-labelledby="newsIconTitle" stroke-linecap="square" stroke-linejoin="miter" fill="none"> <title id="newsIconTitle">News</title> <path d="M22 5L22 17C22 18.3333333 21.3333333 19 20 19 18.6666667 19 18 18.3333333 18 17L18 5 2 5 2 16C2 18 3 19 5 19 7 19 12 19 20 19M6 14L7 14M11 14L14 14M6 10L14 10"/> </svg>
